src/assets/images/json-logo.svg

<svg width="100" height="110" viewBox="0 0 100 110" fill="none" xmlns="http://www.w3.org/2000/svg">
<path d="M50 5L91.5692 29.5V78.5L50 103L8.43078 78.5V29.5L50 5Z" stroke="url(#paint0_linear_2466_2182)"/>
<path d="M49.9999 5L50 25" stroke="url(#paint1_linear_2466_2182)"/>
<path d="M49.9999 83L50 103" stroke="url(#paint2_linear_2466_2182)"/>
<path d="M74.4999 39.3149L91.4999 29.5" stroke="url(#paint3_linear_2466_2182)"/>
<path d="M9.00049 78.5L25.5006 69.5003" stroke="url(#paint4_linear_2466_2182)"/>
<path d="M25 38.9998L9.0002 29.5002" stroke="url(#paint5_linear_2466_2182)"/>
<path d="M91.4995 78.5L74.9994 69.5003" stroke="url(#paint6_linear_2466_2182)"/>
<circle cx="50" cy="54" r="29" fill="url(#paint7_linear_2466_2182)"/>
<path d="M34.6631 59.8427C34.0843 59.8427 33.5648 59.7401 33.1045 59.535C32.6442 59.3254 32.2797 59.0201 32.0108 58.619C31.7419 58.218 31.6075 57.7303 31.6075 57.1561V56.9579H33.1319V57.1561C33.1319 57.4341 33.1957 57.6779 33.3233 57.8876C33.4554 58.0972 33.6355 58.259 33.8633 58.3729C34.0957 58.4823 34.3623 58.537 34.6631 58.537C34.9867 58.537 35.2624 58.4686 35.4903 58.3319C35.7181 58.1952 35.8913 57.9947 36.0098 57.7303C36.1283 57.4615 36.1875 57.1333 36.1875 56.746V49.5204H37.712V56.746C37.712 57.3977 37.5866 57.9559 37.336 58.4208C37.0899 58.8811 36.739 59.2343 36.2832 59.4803C35.8275 59.7219 35.2875 59.8427 34.6631 59.8427ZM42.6237 59.87C41.8626 59.87 41.2018 59.7515 40.6413 59.5145C40.0853 59.273 39.6501 58.9289 39.3356 58.4823C39.0212 58.0357 38.8457 57.5048 38.8093 56.8895H40.3542C40.3861 57.2587 40.5046 57.5663 40.7096 57.8124C40.9193 58.0539 41.1904 58.2339 41.5231 58.3524C41.8558 58.4709 42.2204 58.5302 42.6169 58.5302C43.0498 58.5302 43.4372 58.4618 43.779 58.3251C44.1208 58.1884 44.3874 57.9969 44.5788 57.7509C44.7748 57.5002 44.8727 57.2085 44.8727 56.8759C44.8727 56.5751 44.7861 56.329 44.613 56.1376C44.4443 55.9462 44.2142 55.7889 43.9225 55.6659C43.6309 55.5383 43.3027 55.4266 42.9382 55.3309L41.7419 55.0028C40.9216 54.7841 40.2744 54.4582 39.8005 54.0253C39.3265 53.5878 39.0895 53.0158 39.0895 52.3094C39.0895 51.7216 39.2468 51.2089 39.5612 50.7714C39.8802 50.3339 40.3109 49.9943 40.8532 49.7528C41.4001 49.5067 42.013 49.3837 42.6921 49.3837C43.3848 49.3837 43.9932 49.5067 44.5173 49.7528C45.0459 49.9943 45.4629 50.327 45.7682 50.7509C46.0781 51.1701 46.2399 51.6509 46.2536 52.1932H44.7634C44.7087 51.7238 44.4899 51.3593 44.1071 51.0995C43.7289 50.8397 43.2458 50.7098 42.6579 50.7098C42.2477 50.7098 41.8877 50.7759 41.5778 50.9081C41.2725 51.0357 41.0355 51.2134 40.8669 51.4413C40.7028 51.6691 40.6208 51.9312 40.6208 52.2274C40.6208 52.5464 40.7188 52.8062 40.9147 53.0067C41.1152 53.2072 41.3568 53.3667 41.6393 53.4852C41.9264 53.5992 42.2022 53.6926 42.4665 53.7655L43.4577 54.0321C43.7813 54.1141 44.1139 54.2235 44.4557 54.3602C44.7975 54.4969 45.1143 54.677 45.4059 54.9003C45.7022 55.119 45.9391 55.3925 46.1169 55.7206C46.2992 56.0441 46.3903 56.4361 46.3903 56.8964C46.3903 57.466 46.2422 57.9764 45.946 58.4276C45.6498 58.8742 45.2214 59.2274 44.6608 59.4872C44.1003 59.7424 43.4212 59.87 42.6237 59.87ZM51.7601 59.8427C50.8851 59.8427 50.1012 59.633 49.4085 59.2137C48.7158 58.7945 48.1689 58.1952 47.7679 57.4159C47.3668 56.632 47.1663 55.7001 47.1663 54.62C47.1663 53.5308 47.3668 52.5966 47.7679 51.8173C48.1689 51.0334 48.7158 50.4318 49.4085 50.0126C50.1012 49.5933 50.8851 49.3837 51.7601 49.3837C52.6442 49.3837 53.4303 49.5933 54.1185 50.0126C54.8066 50.4318 55.3489 51.0334 55.7454 51.8173C56.1465 52.5966 56.347 53.5308 56.347 54.62C56.347 55.7046 56.1465 56.6366 55.7454 57.4159C55.3489 58.1952 54.8066 58.7945 54.1185 59.2137C53.4303 59.633 52.6442 59.8427 51.7601 59.8427ZM51.7601 58.4413C52.348 58.4413 52.8721 58.2955 53.3323 58.0038C53.7926 57.7121 54.1549 57.2815 54.4193 56.7118C54.6881 56.1421 54.8226 55.4449 54.8226 54.62C54.8226 53.7906 54.6881 53.091 54.4193 52.5214C54.1549 51.9471 53.7926 51.5142 53.3323 51.2225C52.8721 50.9309 52.348 50.785 51.7601 50.785C51.1767 50.785 50.6527 50.9309 50.1878 51.2225C49.7275 51.5142 49.3629 51.9471 49.0941 52.5214C48.8252 53.091 48.6907 53.7906 48.6907 54.62C48.6907 55.4449 48.8252 56.1421 49.0941 56.7118C49.3629 57.2815 49.7275 57.7121 50.1878 58.0038C50.6527 58.2955 51.1767 58.4413 51.7601 58.4413ZM65.7636 49.5204V59.7059H64.3281L59.167 52.2411H59.0644V59.7059H57.5263V49.5204H58.9482L64.1298 56.9989H64.2255V49.5204H65.7636Z" fill="white"/>
<foreignObject x="-1" y="21" width="18" height="18"><div xmlns="http://www.w3.org/1999/xhtml" style="backdrop-filter:blur(2px);clip-path:url(#bgblur_0_2466_2182_clip_path);height:100%;width:100%"></div></foreignObject><circle data-figma-bg-blur-radius="4" cx="8" cy="30" r="5" fill="url(#paint8_linear_2466_2182)"/>
<foreignObject x="41" y="-4" width="18" height="18"><div xmlns="http://www.w3.org/1999/xhtml" style="backdrop-filter:blur(2px);clip-path:url(#bgblur_1_2466_2182_clip_path);height:100%;width:100%"></div></foreignObject><circle data-figma-bg-blur-radius="4" cx="50" cy="5" r="5" fill="url(#paint9_linear_2466_2182)"/>
<foreignObject x="82" y="21" width="18" height="18"><div xmlns="http://www.w3.org/1999/xhtml" style="backdrop-filter:blur(2px);clip-path:url(#bgblur_2_2466_2182_clip_path);height:100%;width:100%"></div></foreignObject><circle data-figma-bg-blur-radius="4" cx="91" cy="30" r="5" fill="url(#paint10_linear_2466_2182)"/>
<foreignObject x="83" y="69" width="18" height="18"><div xmlns="http://www.w3.org/1999/xhtml" style="backdrop-filter:blur(2px);clip-path:url(#bgblur_3_2466_2182_clip_path);height:100%;width:100%"></div></foreignObject><circle data-figma-bg-blur-radius="4" cx="92" cy="78" r="5" fill="url(#paint11_linear_2466_2182)"/>
<foreignObject x="41" y="95" width="18" height="18"><div xmlns="http://www.w3.org/1999/xhtml" style="backdrop-filter:blur(2px);clip-path:url(#bgblur_4_2466_2182_clip_path);height:100%;width:100%"></div></foreignObject><circle data-figma-bg-blur-radius="4" cx="50" cy="104" r="5" fill="url(#paint12_linear_2466_2182)"/>
<foreignObject x="-1" y="69" width="18" height="18"><div xmlns="http://www.w3.org/1999/xhtml" style="backdrop-filter:blur(2px);clip-path:url(#bgblur_5_2466_2182_clip_path);height:100%;width:100%"></div></foreignObject><circle data-figma-bg-blur-radius="4" cx="8" cy="78" r="5" fill="url(#paint13_linear_2466_2182)"/>
<defs>
<clipPath id="bgblur_0_2466_2182_clip_path" transform="translate(1 -21)"><circle cx="8" cy="30" r="5"/>
</clipPath><clipPath id="bgblur_1_2466_2182_clip_path" transform="translate(-41 4)"><circle cx="50" cy="5" r="5"/>
</clipPath><clipPath id="bgblur_2_2466_2182_clip_path" transform="translate(-82 -21)"><circle cx="91" cy="30" r="5"/>
</clipPath><clipPath id="bgblur_3_2466_2182_clip_path" transform="translate(-83 -69)"><circle cx="92" cy="78" r="5"/>
</clipPath><clipPath id="bgblur_4_2466_2182_clip_path" transform="translate(-41 -95)"><circle cx="50" cy="104" r="5"/>
</clipPath><clipPath id="bgblur_5_2466_2182_clip_path" transform="translate(1 -69)"><circle cx="8" cy="78" r="5"/>
</clipPath><linearGradient id="paint0_linear_2466_2182" x1="165.2" y1="46.3438" x2="-3.76" y2="46.3437" gradientUnits="userSpaceOnUse">
<stop stop-color="white"/>
<stop offset="1" stop-color="white" stop-opacity="0"/>
</linearGradient>
<linearGradient id="paint1_linear_2466_2182" x1="50" y1="170.75" x2="50" y2="-0.849988" gradientUnits="userSpaceOnUse">
<stop stop-color="white"/>
<stop offset="1" stop-color="white" stop-opacity="0"/>
</linearGradient>
<linearGradient id="paint2_linear_2466_2182" x1="50" y1="248.75" x2="50" y2="77.15" gradientUnits="userSpaceOnUse">
<stop stop-color="white"/>
<stop offset="1" stop-color="white" stop-opacity="0"/>
</linearGradient>
<linearGradient id="paint3_linear_2466_2182" x1="-14984.6" y1="-26216.9" x2="-15131.4" y2="-26132.2" gradientUnits="userSpaceOnUse">
<stop stop-color="white"/>
<stop offset="1" stop-color="white" stop-opacity="0"/>
</linearGradient>
<linearGradient id="paint4_linear_2466_2182" x1="-15050.6" y1="-26176.9" x2="-15197.4" y2="-26092.2" gradientUnits="userSpaceOnUse">
<stop stop-color="white"/>
<stop offset="1" stop-color="white" stop-opacity="0"/>
</linearGradient>
<linearGradient id="paint5_linear_2466_2182" x1="15085.1" y1="-26217" x2="15231.9" y2="-26132.2" gradientUnits="userSpaceOnUse">
<stop stop-color="white"/>
<stop offset="1" stop-color="white" stop-opacity="0"/>
</linearGradient>
<linearGradient id="paint6_linear_2466_2182" x1="15151.1" y1="-26176.9" x2="15297.9" y2="-26092.2" gradientUnits="userSpaceOnUse">
<stop stop-color="white"/>
<stop offset="1" stop-color="white" stop-opacity="0"/>
</linearGradient>
<linearGradient id="paint7_linear_2466_2182" x1="50" y1="90" x2="78.6919" y2="39.9472" gradientUnits="userSpaceOnUse">
<stop stop-color="white" stop-opacity="0"/>
<stop offset="1" stop-color="white"/>
</linearGradient>
<linearGradient id="paint8_linear_2466_2182" x1="8" y1="36.2069" x2="12.9469" y2="27.5771" gradientUnits="userSpaceOnUse">
<stop stop-color="white" stop-opacity="0"/>
<stop offset="1" stop-color="white"/>
</linearGradient>
<linearGradient id="paint9_linear_2466_2182" x1="50" y1="11.2069" x2="54.9469" y2="2.5771" gradientUnits="userSpaceOnUse">
<stop stop-color="white" stop-opacity="0"/>
<stop offset="1" stop-color="white"/>
</linearGradient>
<linearGradient id="paint10_linear_2466_2182" x1="91" y1="36.2069" x2="95.9469" y2="27.5771" gradientUnits="userSpaceOnUse">
<stop stop-color="white" stop-opacity="0"/>
<stop offset="1" stop-color="white"/>
</linearGradient>
<linearGradient id="paint11_linear_2466_2182" x1="92" y1="84.2069" x2="96.9469" y2="75.5771" gradientUnits="userSpaceOnUse">
<stop stop-color="white" stop-opacity="0"/>
<stop offset="1" stop-color="white"/>
</linearGradient>
<linearGradient id="paint12_linear_2466_2182" x1="50" y1="110.207" x2="54.9469" y2="101.577" gradientUnits="userSpaceOnUse">
<stop stop-color="white" stop-opacity="0"/>
<stop offset="1" stop-color="white"/>
</linearGradient>
<linearGradient id="paint13_linear_2466_2182" x1="8" y1="84.2069" x2="12.9469" y2="75.5771" gradientUnits="userSpaceOnUse">
<stop stop-color="white" stop-opacity="0"/>
<stop offset="1" stop-color="white"/>
</linearGradient>
</defs>
</svg>

<svg xmlns="http://www.w3.org/2000/svg" width="100" height="110" fill="none" viewBox="0 0 100 110"><path stroke="url(#a)" d="m50 5 41.57 24.5v49L50 103 8.43 78.5v-49z"/><path stroke="url(#b)" d="M50 5v20"/><path stroke="url(#c)" d="M50 83v20"/><path stroke="url(#d)" d="m74.5 39.315 17-9.815"/><path stroke="url(#e)" d="m9 78.5 16.5-9"/><path stroke="url(#f)" d="M25 39 9 29.5"/><path stroke="url(#g)" d="m91.5 78.5-16.5-9"/><circle cx="50" cy="54" r="29" fill="url(#h)"/><path fill="#fff" d="M34.663 59.843a3.8 3.8 0 0 1-1.558-.308 2.57 2.57 0 0 1-1.094-.916q-.405-.602-.404-1.463v-.198h1.525v.198q0 .417.191.732.199.315.54.485.35.165.8.164.486 0 .827-.205.342-.205.52-.602.177-.403.178-.984V49.52h1.524v7.226q0 .978-.376 1.675-.369.69-1.053 1.06-.683.361-1.62.362m7.96.027q-1.14 0-1.982-.355-.833-.363-1.305-1.033t-.527-1.593h1.545q.047.554.356.923.314.363.813.54a3.2 3.2 0 0 0 1.094.178q.65 0 1.162-.205a1.86 1.86 0 0 0 .8-.574 1.38 1.38 0 0 0 .294-.875q0-.45-.26-.738a1.9 1.9 0 0 0-.69-.472 7 7 0 0 0-.985-.335l-1.196-.328q-1.23-.328-1.941-.978-.712-.656-.712-1.716 0-.88.472-1.538.48-.656 1.292-1.018.82-.37 1.84-.37 1.038 0 1.824.37.794.362 1.251.998.465.63.486 1.442h-1.49a1.47 1.47 0 0 0-.657-1.093q-.567-.39-1.45-.39-.615 0-1.08.198a1.65 1.65 0 0 0-.71.533 1.3 1.3 0 0 0-.246.786q0 .48.294.78.3.3.724.478.43.172.828.28l.99.267q.486.123.999.328.512.206.95.54.444.328.71.82.274.486.274 1.176 0 .855-.444 1.532-.445.67-1.285 1.06-.84.381-2.037.382m9.137-.027q-1.312 0-2.352-.63-1.039-.628-1.64-1.797-.602-1.176-.602-2.796 0-1.634.602-2.803.601-1.176 1.64-1.804 1.04-.63 2.352-.63 1.326 0 2.358.63 1.032.628 1.627 1.804.602 1.17.602 2.803 0 1.628-.602 2.796-.594 1.17-1.626 1.798t-2.359.629m0-1.402q.882 0 1.572-.437t1.087-1.292q.405-.855.404-2.092 0-1.245-.404-2.099-.396-.861-1.087-1.299a2.9 2.9 0 0 0-1.572-.437q-.874 0-1.572.438-.69.437-1.094 1.298-.403.855-.403 2.099 0 1.237.403 2.092t1.094 1.292q.697.437 1.572.437m14.004-8.92v10.185h-1.436l-5.161-7.465h-.103v7.465h-1.538V49.52h1.422L64.13 57h.096v-7.48z"/><foreignObject width="18" height="18" x="-1" y="21"><div xmlns="http://www.w3.org/1999/xhtml" clip-path="url(#i)" style="backdrop-filter:blur(2px);height:100%;width:100%"/></foreignObject><circle cx="8" cy="30" r="5" fill="url(#j)"/><foreignObject width="18" height="18" x="41" y="-4"><div xmlns="http://www.w3.org/1999/xhtml" clip-path="url(#k)" style="backdrop-filter:blur(2px);height:100%;width:100%"/></foreignObject><circle cx="50" cy="5" r="5" fill="url(#l)"/><foreignObject width="18" height="18" x="82" y="21"><div xmlns="http://www.w3.org/1999/xhtml" clip-path="url(#m)" style="backdrop-filter:blur(2px);height:100%;width:100%"/></foreignObject><circle cx="91" cy="30" r="5" fill="url(#n)"/><foreignObject width="18" height="18" x="83" y="69"><div xmlns="http://www.w3.org/1999/xhtml" clip-path="url(#o)" style="backdrop-filter:blur(2px);height:100%;width:100%"/></foreignObject><circle cx="92" cy="78" r="5" fill="url(#p)"/><foreignObject width="18" height="18" x="41" y="95"><div xmlns="http://www.w3.org/1999/xhtml" clip-path="url(#q)" style="backdrop-filter:blur(2px);height:100%;width:100%"/></foreignObject><circle cx="50" cy="104" r="5" fill="url(#r)"/><foreignObject width="18" height="18" x="-1" y="69"><div xmlns="http://www.w3.org/1999/xhtml" clip-path="url(#s)" style="backdrop-filter:blur(2px);height:100%;width:100%"/></foreignObject><circle cx="8" cy="78" r="5" fill="url(#t)"/><defs><linearGradient id="a" x1="165.2" x2="-3.76" y1="46.344" y2="46.344" gradientUnits="userSpaceOnUse"><stop stop-color="#fff"/><stop offset="1" stop-color="#fff" stop-opacity="0"/></linearGradient><linearGradient id="b" x1="50" x2="50" y1="170.75" y2="-.85" gradientUnits="userSpaceOnUse"><stop stop-color="#fff"/><stop offset="1" stop-color="#fff" stop-opacity="0"/></linearGradient><linearGradient id="c" x1="50" x2="50" y1="248.75" y2="77.15" gradientUnits="userSpaceOnUse"><stop stop-color="#fff"/><stop offset="1" stop-color="#fff" stop-opacity="0"/></linearGradient><linearGradient id="d" x1="-14984.6" x2="-15131.4" y1="-26216.9" y2="-26132.2" gradientUnits="userSpaceOnUse"><stop stop-color="#fff"/><stop offset="1" stop-color="#fff" stop-opacity="0"/></linearGradient><linearGradient id="e" x1="-15050.6" x2="-15197.4" y1="-26176.9" y2="-26092.2" gradientUnits="userSpaceOnUse"><stop stop-color="#fff"/><stop offset="1" stop-color="#fff" stop-opacity="0"/></linearGradient><linearGradient id="f" x1="15085.1" x2="15231.9" y1="-26217" y2="-26132.2" gradientUnits="userSpaceOnUse"><stop stop-color="#fff"/><stop offset="1" stop-color="#fff" stop-opacity="0"/></linearGradient><linearGradient id="g" x1="15151.1" x2="15297.9" y1="-26176.9" y2="-26092.2" gradientUnits="userSpaceOnUse"><stop stop-color="#fff"/><stop offset="1" stop-color="#fff" stop-opacity="0"/></linearGradient><linearGradient id="h" x1="50" x2="78.692" y1="90" y2="39.947" gradientUnits="userSpaceOnUse"><stop stop-color="#fff" stop-opacity="0"/><stop offset="1" stop-color="#fff"/></linearGradient><linearGradient id="j" x1="8" x2="12.947" y1="36.207" y2="27.577" gradientUnits="userSpaceOnUse"><stop stop-color="#fff" stop-opacity="0"/><stop offset="1" stop-color="#fff"/></linearGradient><linearGradient id="l" x1="50" x2="54.947" y1="11.207" y2="2.577" gradientUnits="userSpaceOnUse"><stop stop-color="#fff" stop-opacity="0"/><stop offset="1" stop-color="#fff"/></linearGradient><linearGradient id="n" x1="91" x2="95.947" y1="36.207" y2="27.577" gradientUnits="userSpaceOnUse"><stop stop-color="#fff" stop-opacity="0"/><stop offset="1" stop-color="#fff"/></linearGradient><linearGradient id="p" x1="92" x2="96.947" y1="84.207" y2="75.577" gradientUnits="userSpaceOnUse"><stop stop-color="#fff" stop-opacity="0"/><stop offset="1" stop-color="#fff"/></linearGradient><linearGradient id="r" x1="50" x2="54.947" y1="110.207" y2="101.577" gradientUnits="userSpaceOnUse"><stop stop-color="#fff" stop-opacity="0"/><stop offset="1" stop-color="#fff"/></linearGradient><linearGradient id="t" x1="8" x2="12.947" y1="84.207" y2="75.577" gradientUnits="userSpaceOnUse"><stop stop-color="#fff" stop-opacity="0"/><stop offset="1" stop-color="#fff"/></linearGradient><clipPath id="i" transform="translate(1 -21)"><circle cx="8" cy="30" r="5"/></clipPath><clipPath id="k" transform="translate(-41 4)"><circle cx="50" cy="5" r="5"/></clipPath><clipPath id="m" transform="translate(-82 -21)"><circle cx="91" cy="30" r="5"/></clipPath><clipPath id="o" transform="translate(-83 -69)"><circle cx="92" cy="78" r="5"/></clipPath><clipPath id="q" transform="translate(-41 -95)"><circle cx="50" cy="104" r="5"/></clipPath><clipPath id="s" transform="translate(1 -69)"><circle cx="8" cy="78" r="5"/></clipPath></defs></svg>
